**kern	**kern	**kern	**kern	**kern
*MM76	*MM76	*MM76	*MM76	*MM76
*k[b-e-a-]	*k[b-e-a-]	*k[b-e-a-]	*k[b-e-a-]	*k[b-e-a-]
*M2/2	*M2/2	*M2/2	*M2/2	*M2/2
*tb32	*tb32	*tb32	*tb32	*tb32
=1	=1	=1	=1	=1
1r	2C	1r	1r	1r
.	2E-	.	.	.
=2	=2	=2	=2	=2
1r	4D	1r	1r	1r
.	4F	.	.	.
.	4A-	.	.	.
.	4C	.	.	.
=3	=3	=3	=3	=3
1r	4BB	1r	1r	1r
.	4D	.	.	.
.	4F	.	.	.
.	4AA-	.	.	.
=4	=4	=4	=4	=4
1r	2GG	1r	1r	1r
.	2E-	.	.	.
=5	=5	=5	=5	=5
1r	4DM	1r	1r	1r
.	4C	.	.	.
.	2D	.	.	.
=6	=6	=6	=6	=6
1r	2C	2G	1r	1r
.	4r	2B-	.	.
.	4G	.	.	.
=7	=7	=7	=7	=7
1r	2C	4A	1r	1r
.	.	4c	.	.
.	4r	4e-	.	.
.	4E-	4G	.	.
=8	=8	=8	=8	=8
1r	2AA	4F#	1r	1r
.	.	4A	.	.
.	4r	4c	.	.
.	4C	4E-	.	.
=9	=9	=9	=9	=9
1r	2FF#	2D	1r	1r
.	4r	2B-	.	.
.	4GG	.	.	.
=10	=10	=10	=10	=10
1r	4C	4A	1r	1r
.	4BB-	4G	.	.
.	4C	2A	.	.
.	4D	.	.	.
=11	=11	=11	=11	=11
1r	2E-	4G	1r	1r
.	.	4B-	.	.
.	4r	[2e-	.	.
.	4C	.	.	.
=12	=12	=12	=12	=12
1r	4F	4e-]	1r	1r
.	4E-	8d-	.	.
.	.	8c	.	.
.	4F	[2d-	.	.
.	4G	.	.	.
=13	=13	=13	=13	=13
1r	2A-	4d-]	1r	1r
.	.	4c	.	.
.	4r	[2f	.	.
.	4D	.	.	.
=14	=14	=14	=14	=14
1r	4G	4f]	1r	1r
.	4F	8e-	.	.
.	.	8d	.	.
.	4G	[2e-	.	.
.	4A	.	.	.
=15	=15	=15	=15	=15
1r	4.B-	4e-]	1r	1r
.	.	4d	.	.
.	8A-	.	.	.
.	8G	4r	.	.
.	8F	.	.	.
.	[4G	4e-	.	.
=16	=16	=16	=16	=16
1r	4G]	4A	1r	1r
.	8F	4G	.	.
.	8E-	.	.	.
.	[2F	4A	.	.
.	.	4B	.	.
=17	=17	=17	=17	=17
1r	4F]	4c	2c	1r
.	4E-	4G	.	.
.	4D	[2c	2e-	.
.	4C	.	.	.
=18	=18	=18	=18	=18
1r	2G	4c]	4d	1r
.	.	8B	4f	.
.	.	8d	.	.
.	4r	[2f	4a-	.
.	4A-	.	4c	.
=19	=19	=19	=19	=19
1r	2D	4f]	4B	1r
.	.	8F	4d	.
.	.	8B	.	.
.	4r	[2d	4f	.
.	4F	.	4A-	.
=20	=20	=20	=20	=20
1r	2BB	4d]	2G	1r
.	.	8e-	.	.
.	.	8d	.	.
.	4r	[2c	2e-	.
.	4C	.	.	.
=21	=21	=21	=21	=21
1r	4F	2c]	4d	1r
.	4E-	.	4c	.
.	4F	2B	2d	.
.	8G	.	.	.
.	8F	.	.	.
=22	=22	=22	=22	=22
1r	2E-	4c	2c	2g
.	.	2G	.	.
.	2D	.	2d	2b-
.	.	[4G	.	.
=23	=23	=23	=23	=23
1r	2C	4G]	2e-	4a
.	.	8F#	.	4cc
.	.	8A	.	.
.	4r	4c	4r	4ee-
.	4BB-	4r	4d	4g
=24	=24	=24	=24	=24
1r	2AA	4r	2c	4f#
.	.	8C	.	4a
.	.	8F#	.	.
.	4r	4A	4r	4cc
.	4GG	4r	4B-	4e-
=25	=25	=25	=25	=25
1r	2FF#	4r	4A	2d
.	.	2D	2a	.
.	[2GG	.	.	2b-
.	.	8E-	8g	.
.	.	8D	8f	.
=26	=26	=26	=26	=26
1r	2GG]	2.C	2e-	4a
.	.	.	.	4g
.	2FF#	.	[2d	[2a
.	.	8BB-	.	.
.	.	8AA	.	.
=27	=27	=27	=27	=27
1r	4GG	4BB-	2.d]	2a]
.	4AA	4C	.	.
.	4BB-	4D	.	[2g
.	4C	4E-	8c	.
.	.	.	8B-	.
=28	=28	=28	=28	=28
1r	2D	2F	4A	2g]
.	.	.	4G	.
.	4r	2r	4A	[2f
.	4D	.	4B	.
=29	=29	=29	=29	=29
1r	4E-	1r	4c	2f]
.	4D	.	4G	.
.	4E-	.	[2c	2e-
.	4F	.	.	.
=30	=30	=30	=30	=30
1r	4G	1r	2c]	2d
.	4A-	.	.	.
.	4G	.	4B-	[2b-
.	4F	.	4A-	.
=31	=31	=31	=31	=31
1r	4E	1r	2G	4b-]
.	4C	.	.	8cc
.	.	.	.	8b-
.	4D	.	[2c	4a-
.	4E	.	.	4g
=32	=32	=32	=32	=32
1r	4F	1r	4c]	[1a-
.	8A-	.	4c	.
.	8G	.	.	.
.	4F	.	8d	.
.	.	.	8c	.
.	4E-	.	8d	.
.	.	.	8e-	.
=33	=33	=33	=33	=33
1r	4D	1r	[1f	4a-]
.	4BB-	.	.	8b-
.	.	.	.	8a-
.	4C	.	.	4g
.	4D	.	.	4f
=34	=34	=34	=34	=34
1r	4E-	1r	4f]	[1g
.	8G	.	4B-	.
.	8F	.	.	.
.	4E-	.	8c	.
.	.	.	8B-	.
.	4D	.	8c	.
.	.	.	8d	.
=35	=35	=35	=35	=35
1r	4C	1r	1e-	4g]
.	8c	.	.	4g
.	8B-	.	.	.
.	4A	.	.	8cc
.	.	.	.	8b-
.	4G	.	.	8cc
.	.	.	.	8dd
=36	=36	=36	=36	=36
1r	4F#	1r	2A	4ee-
.	4D	.	.	8dd
.	.	.	.	8cc
.	4E	.	[2d	4b-
.	4F#	.	.	4a
=37	=37	=37	=37	=37
1r	2G	1r	8d]	4b-
.	.	.	8e-	.
.	.	.	8d	4cc
.	.	.	8c	.
.	4r	.	8B-	[2dd
.	.	.	8A	.
.	4D	.	8G	.
.	.	.	8F#	.
=38	=38	=38	=38	=38
1r	1E-T	1r	8G	2dd]
.	.	.	8g	.
.	.	.	8a	.
.	.	.	8b-	.
.	.	.	8a	2cc
.	.	.	8g	.
.	.	.	8f#	.
.	.	.	8g	.
=39	=39	=39	=39	=39
1r	8D	1r	1f#	2dd
.	8c	.	.	.
.	8d	.	.	.
.	8e-	.	.	.
.	8d	.	.	[2cc
.	8c	.	.	.
.	8B-	.	.	.
.	8A	.	.	.
=40	=40	=40	=40	=40
2GG	4G	1r	1g	8cc]
.	.	.	.	8b-
.	4D	.	.	8cc
.	.	.	.	8dd
2BB-	[2G	.	.	8cc
.	.	.	.	8b-
.	.	.	.	8a
.	.	.	.	8g
=41	=41	=41	=41	=41
4AA	8G]	2r	2r	[1cc
.	8B-	.	.	.
4C	8A	.	.	.
.	8G	.	.	.
4E-	8F#	2c	2a	.
.	8G	.	.	.
4GG	8F#	.	.	.
.	8G	.	.	.
=42	=42	=42	=42	=42
4FF#	8A	2r	2r	1cc_
.	8B-	.	.	.
4AA	8A	.	.	.
.	8G	.	.	.
4C	8F#	2e-	2a	.
.	8G	.	.	.
4EE-	8F#	.	.	.
.	8G	.	.	.
=43	=43	=43	=43	=43
2DD	2A	2.r	4r	4cc]
.	.	.	2d	4f#
2BB-	4D	.	.	4g
.	[4G	4d	4r	8a
.	.	.	.	8b-
=44	=44	=44	=44	=44
4AA	8G]	4c	4r	8cc
.	8F#	.	.	8dd
4GG	4G	4B-	8r	[4ee-
.	.	.	8g	.
2AA	2C	2A	2f#	8ee-]
.	.	.	.	8ee-
.	.	.	.	8dd
.	.	.	.	8cc
=45	=45	=45	=45	=45
2GG	2D	8d	2g	4b-
.	.	8c	.	.
.	.	8B-	.	4d
.	.	8A	.	.
4r	8r	[2G	4r	[2b-
.	8F	.	.	.
4FF	8E-	.	4d	.
.	8D	.	.	.
=46	=46	=46	=46	=46
2EE-	[2C	8G]	[1e-	2b-]
.	.	8B-	.	.
.	.	8A	.	.
.	.	8G	.	.
2FF	8C]	2F	.	2a
.	8E-	.	.	.
.	8D	.	.	.
.	8C	.	.	.
=47	=47	=47	=47	=47
2BB-	2BB-	4F	8e-]	2b-
.	.	.	8e-	.
.	.	8B-	8d	.
.	.	8c	8e	.
4r	4r	4d-	8f	4r
.	.	.	8g	.
4AA-	[4F	4c	8a-	4cc
.	.	.	8f	.
=48	=48	=48	=48	=48
2GG	8F]	2B-	8b-	2dd-
.	8A-	.	8cc	.
.	8G	.	8b-	.
.	8F	.	8a-	.
2C	2E	[2c	8g	[2cc
.	.	.	8a-	.
.	.	.	8b-	.
.	.	.	8g	.
=49	=49	=49	=49	=49
2FF	2F	2c]	8b-	2cc]
.	.	.	8a-	.
.	.	.	8g	.
.	.	.	8f	.
4r	2r	4r	8r	4.ff
.	.	.	8a-	.
4GG	.	4B	4g	.
.	.	.	.	[8ee-
=50	=50	=50	=50	=50
4AA-	1r	4c	4f	8ee-]
.	.	.	.	8dd
4GG	.	4B	4g	8ff
.	.	.	.	8ee-
4AA-	.	4c	4f	8dd
.	.	.	.	8cc
4FF	.	4f	4a-	8b
.	.	.	.	8cc
=51	=51	=51	=51	=51
4GG	1r	2d	[2g	8b
.	.	.	.	8cc
4AA	.	.	.	8dd
.	.	.	.	8b
4BB	.	2r	8g]	[2g
.	.	.	8f	.
4GG	.	.	8e-	.
.	.	.	8d	.
=52	=52	=52	=52	=52
2C	1r	1r	8e-	2g]
.	.	.	8f	.
.	.	.	8g	.
.	.	.	8e-	.
2E-	.	.	8c	[2cc
.	.	.	8B-	.
.	.	.	8A-	.
.	.	.	8G	.
=53	=53	=53	=53	=53
4D	[1F	2r	2r	8cc]
.	.	.	.	8ee-
4F	.	.	.	8dd
.	.	.	.	8cc
4A-	.	2d	2f	8b
.	.	.	.	8cc
4C	.	.	.	8b
.	.	.	.	8cc
=54	=54	=54	=54	=54
4BB	1F_	2r	2r	8dd
.	.	.	.	8ee-
4D	.	.	.	8dd
.	.	.	.	8cc
4F	.	2d	2a-	8b
.	.	.	.	8cc
4AA-	.	.	.	8b
.	.	.	.	8cc
=55	=55	=55	=55	=55
2GG	8F]	4B	4d	2.dd
.	8D	.	.	.
.	8E-	4f	4a-	.
.	8F	.	.	.
2E-	8G	2e-	2g	.
.	8A	.	.	.
.	8B	.	.	[4cc
.	8c	.	.	.
=56	=56	=56	=56	=56
4D	1r	8d	8f	4cc]
.	.	8e-	8g	.
4C	.	8f	8a-	4r
.	.	8a-	8cc	.
2D	.	8g	2b	4r
.	.	8f	.	.
.	.	8e-	.	[4ff
.	.	8d	.	.
=57	=57	=57	=57	=57
2C	1r	8g	2cc	8ff]
.	.	8f	.	8aa-
.	.	8e-	.	8gg
.	.	8d	.	8ff
4r	.	8c	4r	8ee-
.	.	8d	.	8dd
4FF#	.	8e-	4a	8cc
.	.	8d	.	8b
=58	=58	=58	=58	=58
1GG	1r	4.e-	2g	4.cc
.	.	8f	.	8dd
.	.	4.d	2f	4.bT
.	.	8c	.	8cc
=59	=59	=59	=59	=59
2CC	8r	2c	2e-	2cc
.	8G	.	.	.
.	8F	.	.	.
.	8E-	.	.	.
2r	8D	2r	2r	2r
.	8E-	.	.	.
.	8F	.	.	.
.	8D	.	.	.
=60	=60	=60	=60	=60
1r	4E-	1r	1r	8r
.	.	.	.	8g
.	4F	.	.	8f
.	.	.	.	8e-
.	2G	.	.	8d
.	.	.	.	8e-
.	.	.	.	8f
.	.	.	.	8d
=61	=61	=61	=61	=61
1r	8C	1r	1r	4e-
.	8c	.	.	.
.	8B-	.	.	4f
.	8A-	.	.	.
.	8G	.	.	2g
.	8A-	.	.	.
.	8B-	.	.	.
.	8G	.	.	.
=62	=62	=62	=62	=62
1r	4A-	1r	1r	8c
.	.	.	.	8cc
.	4B-	.	.	8b-
.	.	.	.	8a-
.	2c	.	.	8g
.	.	.	.	8a-
.	.	.	.	8b-
.	.	.	.	8g
=63	=63	=63	=63	=63
1r	4F	1r	8r	[1a-
.	.	.	8f	.
.	4G	.	8e-	.
.	.	.	8d	.
.	4A-	.	8c	.
.	.	.	8d	.
.	4F	.	8e-	.
.	.	.	8c	.
=64	=64	=64	=64	=64
1r	8BB-	1r	4d	1a-_
.	8B-	.	.	.
.	8A-	.	4e-	.
.	8G	.	.	.
.	8F	.	2f	.
.	8G	.	.	.
.	8A-	.	.	.
.	8F	.	.	.
=65	=65	=65	=65	=65
1r	4G	1r	4B-	8a-]
.	.	.	.	8b-
.	4A-	.	4c	8a-
.	.	.	.	8g
.	2B-	.	[2d	8f
.	.	.	.	8g
.	.	.	.	8a-
.	.	.	.	8f
=66	=66	=66	=66	=66
1r	4E-	1r	8d]	4g
.	.	.	8e-	.
.	4F	.	8d-	4a-
.	.	.	8c	.
.	4G	.	8B-	[2b-
.	.	.	8c	.
.	4E-	.	8d-	.
.	.	.	8B-	.
=67	=67	=67	=67	=67
1r	4A-	1r	4c	8b-]
.	.	.	.	8a-
.	4B-	.	4d	8g
.	.	.	.	8f
.	4c	.	[2e-	8e-
.	.	.	.	8f
.	4B-	.	.	8g
.	.	.	.	8e-
=68	=68	=68	=68	=68
1r	4A-	1r	2e-_	8f
.	.	.	.	8e-
.	4G	.	.	8f
.	.	.	.	8g
.	4F	.	8e-]	[2a-
.	.	.	8g	.
.	8G	.	8f	.
.	8A-	.	8e-	.
=69	=69	=69	=69	=69
1r	8B-	1r	8d	2.a-]
.	8G	.	8e-	.
.	8F	.	8f	.
.	8E-	.	8d	.
.	8D	.	[2B-	.
.	8E-	.	.	.
.	8F	.	.	4a-
.	8D	.	.	.
=70	=70	=70	=70	=70
1r	8E-	1r	4B-]	2.g
.	8F	.	.	.
.	8E-	.	4B-	.
.	8D	.	.	.
.	8C	.	[2e-	.
.	8D	.	.	.
.	8E-	.	.	4cc
.	8C	.	.	.
=71	=71	=71	=71	=71
1r	8D	1r	2e-]	4f
.	8E-	.	.	.
.	8D	.	.	8g
.	8C	.	.	8a
.	8BB-	.	8d	[2b-
.	8C	.	8e-	.
.	8D	.	8f	.
.	8BB-	.	8d	.
=72	=72	=72	=72	=72
1r	8C	1r	2.e-	4b-]
.	8D	.	.	.
.	8C	.	.	8a
.	8BB-	.	.	8g
.	8AA	.	.	[2f
.	8BB-	.	.	.
.	8C	.	4e-	.
.	8AA	.	.	.
=73	=73	=73	=73	=73
1r	4BB-	1r	4d	8f]
.	.	.	.	8ff
.	2B-	.	4r	8ee-
.	.	.	.	8dd
.	.	.	2r	8cc
.	.	.	.	8dd
.	4A	.	.	8ee-
.	.	.	.	8cc
=74	=74	=74	=74	=74
1r	4B-	1r	8r	4dd
.	.	.	8b-	.
.	4c	.	8a-	4ee
.	.	.	8g	.
.	4d-	.	8f	[2ff
.	.	.	8g	.
.	4c	.	8a-	.
.	.	.	8f	.
=75	=75	=75	=75	=75
1r	8B-	1r	4g	2ff]
.	8c	.	.	.
.	8B-	.	4a-	.
.	8A-	.	.	.
.	8G	.	4b-	2ee
.	8A-	.	.	.
.	8B-	.	4g	.
.	8G	.	.	.
=76	=76	=76	=76	=76
1r	4A-	1r	8c	2ff
.	.	.	8cc	.
.	4F	.	8b-	.
.	.	.	8a-	.
.	4c	.	8g	[2ee-
.	.	.	8a-	.
.	4C	.	8b-	.
.	.	.	8g	.
=77	=77	=77	=77	=77
1r	8F	1r	4a-	4ee-]
.	8E-	.	.	.
.	8F	.	4b-	4dd-
.	8G	.	.	.
.	8A-	.	4e-	[2cc
.	8G	.	.	.
.	8F	.	4a-	.
.	8A-	.	.	.
=78	=78	=78	=78	=78
1r	[1G	1r	8d	2cc]
.	.	.	8g	.
.	.	.	8f	.
.	.	.	8e-	.
.	.	.	8d	8b
.	.	.	8e-	8cc
.	.	.	8f	[4dd
.	.	.	8d	.
=79	=79	=79	=79	=79
1r	1G_	1r	4e-	8dd]
.	.	.	.	8gg
.	.	.	8d	8ff
.	.	.	8c	8ee-
.	.	.	8B	8dd
.	.	.	8c	8ee-
.	.	.	[4d	8ff
.	.	.	.	8dd
=80	=80	=80	=80	=80
1r	1G]	1r	8d]	2ee-
.	.	.	8c	.
.	.	.	8d	.
.	.	.	8e-	.
.	.	.	8f	[2dd
.	.	.	8e-	.
.	.	.	8d	.
.	.	.	8f	.
=81	=81	=81	=81	=81
1r	1r	1r	4e-	8dd]
.	.	.	.	8cc
.	.	.	8f	8dd
.	.	.	8g	8ee-
.	.	.	8a-	8ff
.	.	.	8g	8ee-
.	.	.	8f	8dd
.	.	.	8a-	8ff
=82	=82	=82	=82	=82
1r	8r	1r	4.g	[1ee-
.	8c	.	.	.
.	8B-	.	.	.
.	8A-	.	8a-	.
.	8G	.	8b-	.
.	8A-	.	8cc	.
.	8B-	.	8dd-	.
.	8G	.	8b-	.
=83	=83	=83	=83	=83
1r	8AA-	1r	[1cc	4.ee-]
.	8A-	.	.	.
.	8G	.	.	.
.	8F	.	.	8ff
.	8E	.	.	8gg
.	8F	.	.	8aa-
.	8G	.	.	8bb-
.	8E	.	.	8gg
=84	=84	=84	=84	=84
1r	2F	1r	8cc]	2aa-
.	.	.	8b	.
.	.	.	8cc	.
.	.	.	8dd	.
.	2G	.	8ee-	[2gg
.	.	.	8ff	.
.	.	.	8gg	.
.	.	.	8ee-	.
=85	=85	=85	=85	=85
1r	1A-T	1r	8cc	2gg]
.	.	.	8b	.
.	.	.	8cc	.
.	.	.	8ee-	.
.	.	.	8dd	2ff
.	.	.	8cc	.
.	.	.	8b	.
.	.	.	8cc	.
=86	=86	=86	=86	=86
1r	2G	1r	2b	8r
.	.	.	.	8gg
.	.	.	.	8ff
.	.	.	.	8ee-
.	2r	.	2r	8dd
.	.	.	.	8ee-
.	.	.	.	8ff
.	.	.	.	8dd
=87	=87	=87	=87	=87
1r	2c	1r	1r	8ee-
.	.	.	.	8ff
.	.	.	.	8ee-
.	.	.	.	8dd
.	2e-	.	.	8cc
.	.	.	.	8dd
.	.	.	.	8ee-
.	.	.	.	8cc
=88	=88	=88	=88	=88
1r	4d	1r	1r	8ff
.	.	.	.	8ee-
.	4f	.	.	8dd
.	.	.	.	8cc
.	4a-	.	.	8b
.	.	.	.	8cc
.	4c	.	.	[4dd
=89	=89	=89	=89	=89
1r	4B	1r	1r	8dd]
.	.	.	.	8gg
.	4d	.	.	8ff
.	.	.	.	8ee-
.	4f	.	.	8dd
.	.	.	.	8ee-
.	4A-	.	.	[4ff
=90	=90	=90	=90	=90
1r	2G	1r	1r	8ff]
.	.	.	.	8g
.	.	.	.	8a
.	.	.	.	8b
.	2e-	.	.	8cc
.	.	.	.	8dd
.	.	.	.	8ee-
.	.	.	.	8cc
=91	=91	=91	=91	=91
1r	4d	1r	4r	8ff
.	.	.	.	8gg
.	4c	.	2cc	8aa-
.	.	.	.	8gg
.	2d	.	.	8ff
.	.	.	.	8ee-
.	.	.	4b	8dd
.	.	.	.	8ff
=92	=92	=92	=92	=92
1r	4c	1r	8cc	2ee-
.	.	.	8dd	.
.	4A	.	8cc	.
.	.	.	8b-	.
.	4F#	.	8a	[2dd
.	.	.	8b-	.
.	4D	.	8cc	.
.	.	.	8a	.
=93	=93	=93	=93	=93
2GG	4G	1r	8b-	1dd]
.	.	.	8cc	.
.	2D	.	8b-	.
.	.	.	8a	.
2BB-	.	.	8g	.
.	.	.	8a	.
.	4G	.	8b-	.
.	.	.	8g	.
=94	=94	=94	=94	=94
4AA	4F#	1r	8cc	[1ee-
.	.	.	8b-	.
4C	4A	.	8a	.
.	.	.	8g	.
4E-	[2c	.	8f#	.
.	.	.	8g	.
4GG	.	.	[4a	.
=95	=95	=95	=95	=95
4FF#	2c_	1r	8a]	1ee-_
.	.	.	8dd	.
4AA	.	.	8cc	.
.	.	.	8b-	.
4C	8c]	.	8a	.
.	8B-	.	8b-	.
4EE-	8A	.	[4cc	.
.	8G	.	.	.
=96	=96	=96	=96	=96
2DD	4F#	1r	8cc]	8ee-]
.	.	.	8d	8f#
.	4r	.	8e	8g
.	.	.	8f#	8a
2BB-	2r	.	8g	8b-
.	.	.	8a	8cc
.	.	.	8b-	8dd
.	.	.	8g	8ee
=97	=97	=97	=97	=97
4AA	1r	1r	8cc	4ff#
.	.	.	8dd	.
4GG	.	.	8ee-	2gg
.	.	.	8dd	.
2AA	.	.	8cc	.
.	.	.	8b-	.
.	.	.	8a	4ff#
.	.	.	8cc	.
=98	=98	=98	=98	=98
4GG	8r	1r	4b-	4gg
.	8d	.	.	.
2G	8c	.	4r	4r
.	8B-	.	.	.
.	8A	.	2r	2r
.	8B-	.	.	.
4F#	8c	.	.	.
.	8A	.	.	.
=99	=99	=99	=99	=99
4G	4B-	1r	1r	8r
.	.	.	.	8gg
4A	4c	.	.	8ff
.	.	.	.	8ee-
4B	[2d	.	.	8dd
.	.	.	.	8ee-
4G	.	.	.	8ff
.	.	.	.	8dd
=100	=100	=100	=100	=100
4C	8d]	1r	1r	4ee-
.	8c	.	.	.
4D	8B-	.	.	4ff
.	8A-	.	.	.
4E-	8G	.	.	[2gg
.	8A-	.	.	.
4C	8B-	.	.	.
.	8G	.	.	.
=101	=101	=101	=101	=101
4F	4A-	1r	1r	8gg]
.	.	.	.	8ff
4G	4B-	.	.	8ee-
.	.	.	.	8dd
4A-	[2c	.	.	8cc
.	.	.	.	8dd
4F	.	.	.	8ee-
.	.	.	.	8cc
=102	=102	=102	=102	=102
4BB-	8c]	1r	1r	4dd
.	8B-	.	.	.
4C	8A-	.	.	4ee-
.	8G	.	.	.
4D	8F	.	.	[2ff
.	8G	.	.	.
4BB-	8A-	.	.	.
.	8F	.	.	.
=103	=103	=103	=103	=103
4E-	4G	1r	1r	8ff]
.	.	.	.	8ee-
4F	4A-	.	.	8dd-
.	.	.	.	8cc
4G	[2B-	.	.	8b-
.	.	.	.	8cc
4E-	.	.	.	8dd-
.	.	.	.	8b-
=104	=104	=104	=104	=104
2AA-	8B-]	1r	2e-	2cc
.	8A-	.	.	.
.	8G	.	.	.
.	8F	.	.	.
4GG	8E-	.	2g	[2ee-
.	8F	.	.	.
4EE-	8G	.	.	.
.	8E-	.	.	.
=105	=105	=105	=105	=105
2FF	8A-	1r	4f	2ee-]
.	8G	.	.	.
.	8F	.	4a-	.
.	8E-	.	.	.
4r	8D	.	4cc	4r
.	8E-	.	.	.
4AA-	[4F	.	4e-	[4cc
=106	=106	=106	=106	=106
2BB-	8F]	1r	4d	4cc]
.	8B-	.	.	.
.	8A-	.	4f	8b-
.	8G	.	.	8cc
4r	8F	.	4a-	8dd
.	8G	.	.	8ee-
4C	[4A-	.	4c	8dd
.	.	.	.	8ee-
=107	=107	=107	=107	=107
4D	8A-]	1r	2B-	4f
.	8BB-	.	.	.
4BB-	8C	.	.	2b-
.	8D	.	.	.
4E-	8E-	.	2g	.
.	8F	.	.	.
4C	8G	.	.	[4ee-
.	8E-	.	.	.
=108	=108	=108	=108	=108
2AA-	8A-	1r	4f	8ee-]
.	8B-	.	.	8dd
.	8c	.	4e-	8cc
.	8B-	.	.	8dd
4r	8A-	.	2f	2ddT
.	8G	.	.	.
4BB-	8F	.	.	.
.	8A-	.	.	.
=109	=109	=109	=109	=109
4EE-	4G	1r	[1e-	8r
.	.	.	.	8ee-
4FF	4A-	.	.	8dd-
.	.	.	.	8cc
4GG	[2B-	.	.	8b-
.	.	.	.	8cc
4EE-	.	.	.	8dd-
.	.	.	.	8b-
=110	=110	=110	=110	=110
4AA-	4B-]	1r	1e-_	8cc
.	.	.	.	8dd-
4BB-	8A-	.	.	8cc
.	8G	.	.	8b-
4C-	[2A-	.	.	8a-
.	.	.	.	8b-
4AA-	.	.	.	8cc
.	.	.	.	8a-
=111	=111	=111	=111	=111
4E-	8A-]	1r	1e-_	[1b-
.	8F	.	.	.
4F	8G	.	.	.
.	8A-	.	.	.
4G	8B-	.	.	.
.	8c	.	.	.
4E-	8d-	.	.	.
.	8B-	.	.	.
=112	=112	=112	=112	=112
4A-	[1c	1r	8e-]	2.b-]
.	.	.	8e-	.
4G	.	.	8f	.
.	.	.	8g	.
4F	.	.	8a-	.
.	.	.	8b-	.
4E-	.	.	8cc	4r
.	.	.	8a-	.
=113	=113	=113	=113	=113
4D	8c]	1r	4f	1r
.	8B-	.	.	.
4C	8A-	.	8g	.
.	8G	.	8a-	.
4D	8F	.	[2b-	.
.	8E	.	.	.
4E	8F	.	.	.
.	8G	.	.	.
=114	=114	=114	=114	=114
4F	8A-	1r	4b-]	1r
.	8B-	.	.	.
4E-	2c	.	8a-	.
.	.	.	8g	.
2D-	.	.	8f	.
.	.	.	8a-	.
.	[4B-	.	8g	.
.	.	.	8f	.
=115	=115	=115	=115	=115
2C	8B-]	1r	4e	1r
.	8d-	.	.	.
.	8c	.	4g	.
.	8B-	.	.	.
2r	8A-	.	4cc	.
.	8B-	.	.	.
.	8c	.	[4b-	.
.	8A-	.	.	.
=116	=116	=116	=116	=116
1r	2F	1r	8b-]	2r
.	.	.	8c	.
.	.	.	8d	.
.	.	.	8e	.
.	2A-	.	8f	4r
.	.	.	8g	.
.	.	.	8a-	[4ff
.	.	.	8f	.
=117	=117	=117	=117	=117
1r	4G	1r	[2b-	8ff]
.	.	.	.	8aa-
.	4B-	.	.	8gg
.	.	.	.	8ff
.	4d-	.	4.b-]	8ee
.	.	.	.	8ff
.	4F	.	.	[4gg
.	.	.	8d-	.
=118	=118	=118	=118	=118
1r	4E	1r	[2c	8gg]
.	.	.	.	8ccc
.	4G	.	.	8bb-
.	.	.	.	8aa-
.	4B-	.	4c]	8gg
.	.	.	.	8aa-
.	4D-	.	8r	[4bb-
.	.	.	8F	.
=119	=119	=119	=119	=119
1r	2C	1r	4E	8bb-]
.	.	.	.	8cc
.	.	.	4G	8dd
.	.	.	.	8ee
.	2A-	.	4c	8ff
.	.	.	.	8gg
.	.	.	4f	8aa-
.	.	.	.	8ff
=120	=120	=120	=120	=120
1r	4G	1r	4d-	8bb-
.	.	.	.	8aa-
.	4F	.	2B-	8gg
.	.	.	.	8ff
.	2G	.	.	8ee
.	.	.	.	8gg
.	.	.	4e	8cc
.	.	.	.	8b-
=121	=121	=121	=121	=121
1r	2F	1r	8f	2a-
.	.	.	8g	.
.	.	.	8f	.
.	.	.	8e	.
.	2r	.	8f	4r
.	.	.	8c	.
.	.	.	8g	4b-
.	.	.	8c	.
=122	=122	=122	=122	=122
1r	4r	1r	8a-	4cc
.	.	.	8f	.
.	4F	.	8b-	4dd-
.	.	.	8f	.
.	4FF	.	8a-	4cc
.	.	.	8f	.
.	4F	.	8g	4b-
.	.	.	8e	.
=123	=123	=123	=123	=123
1r	2FF	1r	8f	2a-
.	.	.	8g	.
.	.	.	8f	.
.	.	.	8e	.
.	2r	.	8f	4r
.	.	.	8c	.
.	.	.	8g	4b-
.	.	.	8c	.
=124	=124	=124	=124	=124
1r	4r	1r	8a-	4cc
.	.	.	8f	.
.	4F	.	8b-	4dd-
.	.	.	8f	.
.	4FF	.	8a-	4cc
.	.	.	8f	.
.	4F	.	8g	4b-
.	.	.	8e	.
=125	=125	=125	=125	=125
1r	2FF	1r	8f	2a-
.	.	.	8g	.
.	.	.	8f	.
.	.	.	8e	.
.	2r	.	8f	4r
.	.	.	8c	.
.	.	.	8g	4b-
.	.	.	8c	.
=126	=126	=126	=126	=126
1r	4r	1r	8a-	4cc
.	.	.	8f	.
.	4G	.	8cc	4ee-
.	.	.	8g	.
.	4A-	.	8b	4dd
.	.	.	8f	.
.	4F#	.	8a	4cc
.	.	.	8e-	.
=127	=127	=127	=127	=127
1r	2G	1r	8d	2b
.	.	.	8a-	.
.	.	.	8g	.
.	.	.	8f#	.
.	2r	.	8g	4r
.	.	.	8d	.
.	.	.	8a	4cc
.	.	.	8d	.
=128	=128	=128	=128	=128
1r	4r	1r	8b	4dd
.	.	.	8g	.
.	4G	.	8dd	4ff
.	.	.	8g	.
.	4GG	.	8cc	4ee-
.	.	.	8g	.
.	4G	.	8b	4dd
.	.	.	8g	.
=129	=129	=129	=129	=129
1r	2GG	1r	8cc	2ee-
.	.	.	8a-	.
.	.	.	8g	.
.	.	.	8f#	.
.	2r	.	8g	4r
.	.	.	8a	.
.	.	.	8b	4dd
.	.	.	8g	.
=130	=130	=130	=130	=130
1r	4r	1r	8cc	4ee-
.	.	.	8g	.
.	4G	.	8ee-	4gg
.	.	.	8g	.
.	4GG	.	8dd	4ff
.	.	.	8g	.
.	4G	.	8cc	4ee-
.	.	.	8g	.
=131	=131	=131	=131	=131
1r	2GG	1r	8dd	2ff
.	.	.	8a-	.
.	.	.	8g	.
.	.	.	8f#	.
.	2r	.	8g	4r
.	.	.	8b	.
.	.	.	8cc	4ee-
.	.	.	8g	.
=132	=132	=132	=132	=132
1r	4r	1r	8dd	4ff
.	.	.	8g	.
.	4G	.	8ff	4aa-
.	.	.	8g	.
.	4GG	.	8ee-	4gg
.	.	.	8g	.
.	4G	.	8dd	4ff
.	.	.	8g	.
=133	=133	=133	=133	=133
1r	4GG	1r	8ee-	4gg
.	.	.	8g	.
.	4G	.	8cc	4ee-
.	.	.	8g	.
.	4F	.	8b	4dd
.	.	.	8g	.
.	4E-	.	8cc	4ee-
.	.	.	8g	.
=134	=134	=134	=134	=134
1r	4GG	1r	8dd	4ff
.	.	.	8g	.
.	4F	.	8b	4dd
.	.	.	8g	.
.	4E-	.	8a	4cc
.	.	.	8g	.
.	4D	.	8b	4dd
.	.	.	8g	.
=135	=135	=135	=135	=135
1r	4GG	1r	8cc	4ee-
.	.	.	8g	.
.	4E-	.	8a-	4cc
.	.	.	8g	.
.	4D	.	8a-	4b
.	.	.	8f	.
.	4C	.	8a-	4cc
.	.	.	8e-	.
=136	=136	=136	=136	=136
1r	4BB	1r	8a-	4dd
.	.	.	8f	.
.	4GG	.	8g	4b
.	.	.	8f	.
.	4AA	.	8g	4cc
.	.	.	8e-	.
.	4BB	.	8g	4dd
.	.	.	8d	.
=137	=137	=137	=137	=137
1r	4C	1r	8g	8ee-
.	.	.	8c	8r
.	4BB-	.	8d	4r
.	.	.	8e-	.
.	4AA-	.	8f	2r
.	.	.	8g	.
.	4GG	.	8a-	.
.	.	.	8b-	.
=138	=138	=138	=138	=138
1r	4FF	1r	8a-	1r
.	.	.	8ff	.
.	4GG	.	8g	.
.	.	.	8ee-	.
.	4AA-	.	8f	.
.	.	.	8dd	.
.	4FF	.	8e-	.
.	.	.	8cc	.
=139	=139	=139	=139	=139
1r	4GG	1r	8d	1r
.	.	.	8cc	.
.	4G	.	8b	.
.	.	.	8a	.
.	4A	.	8g	.
.	.	.	8f	.
.	4B	.	8e-	.
.	.	.	8d	.
=140	=140	=140	=140	=140
2C	8c	2r	1r	4e-
.	8f	.	.	.
.	8e-	.	.	4g
.	8d	.	.	.
2E-	8c	4r	.	[2cc
.	8B-	.	.	.
.	8A-	4c	.	.
.	8G	.	.	.
=141	=141	=141	=141	=141
4D	8F	[1f	1r	8cc]
.	8G	.	.	8ee-
4F	8F	.	.	8dd
.	8E-	.	.	8cc
4A-	8D	.	.	8b
.	8C	.	.	8cc
4C	8BB	.	.	[4dd
.	8AA	.	.	.
=142	=142	=142	=142	=142
4BB	8GG	8f]	2r	8dd]
.	8r	8e-	.	8gg
4D	4r	8d	.	8ff
.	.	8c	.	8ee-
4F	2r	8B	8r	8dd
.	.	8c	8ee-	8ee-
4AA-	.	8B	8dd	[4ff
.	.	8c	8cc	.
=143	=143	=143	=143	=143
2GG	1r	4d	8b	8ff]
.	.	.	8r	8g
.	.	[4G	4r	8a
.	.	.	.	8b
2E-	.	8G]	2r	8cc
.	.	8F	.	8dd
.	.	8G	.	8ee-
.	.	8A	.	8cc
=144	=144	=144	=144	=144
4D	1r	4B	4r	8ff
.	.	.	.	8gg
4C	.	4c	8r	[4aa-
.	.	.	8ff	.
2D	.	2F	2b	8aa-]
.	.	.	.	8aa-
.	.	.	.	8gg
.	.	.	.	8ff
=145	=145	=145	=145	=145
4C	1r	2.G	8r	[1ee-
.	.	.	8dd	.
4D	.	.	8cc	.
.	.	.	8b	.
4E-	.	.	8cc	.
.	.	.	8dd	.
4C	.	4c	8ee-	.
.	.	.	8cc	.
=146	=146	=146	=146	=146
4F	1r	2c	8a-	8ee-]
.	.	.	8b-	8gg
4FF	.	.	8a-	8ff
.	.	.	8g	8ee-
[2F	.	2d	8f	8dd
.	.	.	8g	8ee-
.	.	.	8a-	8ff
.	.	.	8f	8dd
=147	=147	=147	=147	=147
8F]	1r	4G	4d	4b
8G	.	.	.	.
8F	.	4r	4d	4b
8G	.	.	.	.
8E-	.	2r	4e-	4cc
8F	.	.	.	.
8D	.	.	4f	4dd
8E-	.	.	.	.
=148	=148	=148	=148	=148
8C	1r	4r	4g	[1ee-
8E-	.	.	.	.
8D-	.	4B-	4g	.
8E-	.	.	.	.
8C	.	4c	4a-	.
8D-	.	.	.	.
8BB-	.	4d-	4b-	.
8C	.	.	.	.
=149	=149	=149	=149	=149
8AA-	1r	4e-	4cc	4ee-]
8c	.	.	.	.
8B-	.	4r	4e-	4cc
8c	.	.	.	.
8A-	.	2r	4f	4dd
8B-	.	.	.	.
8G	.	.	4g	4ee
8A-	.	.	.	.
=150	=150	=150	=150	=150
8F	1r	8r	4a-	[1ff
8A-	.	8c	.	.
8G	.	8B-	4b-	.
8A-	.	8c	.	.
8F	.	8A-	[2cc	.
8G	.	8B-	.	.
8E-	.	8G	.	.
8F	.	8A-	.	.
=151	=151	=151	=151	=151
4D-	2r	2F	8cc]	1ff_
.	.	.	8ee-	.
4F	.	.	8dd-	.
.	.	.	8cc	.
4A-	4r	4r	8b	.
.	.	.	8cc	.
4C	4A-	4e-	8b	.
.	.	.	8cc	.
=152	=152	=152	=152	=152
4BB	2A-	2d	8dd	1ff_
.	.	.	8ee-	.
4D	.	.	8dd	.
.	.	.	8cc	.
4F	4r	4r	8b	.
.	.	.	8cc	.
4AA-	[4c	4d	8b	.
.	.	.	8cc	.
=153	=153	=153	=153	=153
[1GG	4c]	2d	4dd	8ff]
.	.	.	.	8aa-
.	4B	.	4r	8gg
.	.	.	.	8ff
.	2c	4r	4r	8ee-
.	.	.	.	8dd
.	.	[4c	[4e-	8cc
.	.	.	.	8ee-
=154	=154	=154	=154	=154
1GG_	2F#	2c]	2e-]	8a
.	.	.	.	8b-
.	.	.	.	8cc
.	.	.	.	8a
.	4r	4r	4r	8f#
.	.	.	.	8ee-
.	4F#	4A	4e-	8dd
.	.	.	.	8cc
=155	=155	=155	=155	=155
1GG_	2G	2d	8r	4cc
.	.	.	8a-	.
.	.	.	8g	4b
.	.	.	8f	.
.	8e-	2r	[2cc	4r
.	8d	.	.	.
.	8c	.	.	[4ee-
.	8e-	.	.	.
=156	=156	=156	=156	=156
1GG_	8A	2f#	2cc]	2ee-]
.	8B-	.	.	.
.	8c	.	.	.
.	8A	.	.	.
.	8F#	4r	4r	4r
.	8e-	.	.	.
.	8d	4a	4cc	4ff#
.	8c	.	.	.
=157	=157	=157	=157	=157
4GG]	8c	4g	4dd	4gg
.	8B	.	.	.
4F	4r	4d	4g	4b
4E-	4r	4r	4g	[2cc
4FF#	8C	4c 4A	4a	.
.	8D	.	.	.
=158	=158	=158	=158	=158
1GG	4E-	2c 2G	2g 2e-	4.cc]
.	4C	.	.	.
.	.	.	.	8dd
.	4G	2G	2g 2f 2d	4.b
.	4GG	.	.	.
.	.	.	.	8cc
=159	=159	=159	=159	=159
1CC	1GG	1G 1C	1c 1e	1cc 1g
==	==	==	==	==
*-	*-	*-	*-	*-
